**kern	**text	**kern	**text	**kern	**text	**kern	**text	**kern	**text
*staff5	*staff5	*staff4	*staff4	*staff3	*staff3	*staff2	*staff2	*staff1	*staff1
=1-	=1-	=1-	=1-	=1-	=1-	=1-	=1-	=1-	=1-
*clefF4	*	*clefGv2	*	*clefGv2	*	*clefG2	*	*clefG2	*
*k[]	*	*k[]	*	*k[]	*	*k[]	*	*k[]	*
*M4/4	*	*M4/4	*	*M4/4	*	*M4/4	*	*M4/4	*
1r	.	1G/	Gius-	1d\	Gius-	1r	.	1r	.
=2	=2	=2	=2	=2	=2	=2	=2	=2	=2
1r	.	2G/	to	2d\	to	1r	.	1g/	Gius-
.	.	2G/	dis-	2d\	dis-	.	.	.	.
=3	=3	=3	=3	=3	=3	=3	=3	=3	=3
1r	.	4c\	deg-	4e\	deg-	1r	.	2g/	to
.	.	4d\	.	4f\	.	.	.	.	.
.	.	4e\	.	4g\	.	.	.	2g/	dis-
.	.	4f\	.	4f\	.	.	.	.	.
=4	=4	=4	=4	=4	=4	=4	=4	=4	=4
1r	.	2g\	.	4e\	.	2r	.	4cc\	deg-
.	.	.	.	4B\	.	.	.	4dd\	.
.	.	2e\	.	[2c\	.	2g/	Gius-	4ee\	.
.	.	.	.	.	.	.	.	4ff\	.
=5	=5	=5	=5	=5	=5	=5	=5	=5	=5
1r	.	1d\	noA-	2c\]	.	2g/	to	1gg\	.
.	.	.	.	2B\	noA-	2g/	dis-	.	.
=6	=6	=6	=6	=6	=6	=6	=6	=6	=6
1r	.	1c\	mo-	1A/	mo-	4cc\	deg-	2ff\	noA-
.	.	.	.	.	.	4dd\	.	.	.
.	.	.	.	.	.	4ee\	.	[2ee\	mo-
.	.	.	.	.	.	4ff\	.	.	.
=7	=7	=7	=7	=7	=7	=7	=7	=7	=7
1r	.	2B\	re	2G/	re	[1gg\	.	2ee\]	.
.	.	2B\	Gius-	2G/	Gius-	.	.	4dd\	.
.	.	.	.	.	.	.	.	4cc\	.
=8	=8	=8	=8	=8	=8	=8	=8	=8	=8
1r	.	2d\	to	2G/	to	2gg\]	.	4b\	.
.	.	.	.	.	.	.	.	4a/	.
.	.	2d\	dis-	2G/	dis-	2gg\	noA-	2b\	.
=9	=9	=9	=9	=9	=9	=9	=9	=9	=9
1C/	Gius-	4e\	deg-	4c\	deg-	4gg\	mo-	1cc\	re
.	.	4f\	.	4d\	.	4ff\	.	.	.
.	.	4g\	.	4e\	.	4ee\	.	.	.
.	.	4f\	.	4f\	.	4dd\	.	.	.
=10	=10	=10	=10	=10	=10	=10	=10	=10	=10
2C/	to	4e\	.	4g\	.	1ee\	.	2r	.
.	.	4d\	.	4f\	.	.	.	.	.
2C/	dis-	4c\	.	4e\	.	.	.	2g/	Gius-
.	.	4B\	.	4d\	.	.	.	.	.
=11	=11	=11	=11	=11	=11	=11	=11	=11	=11
2.F\	deg-	2.A/	.	2c\	.	2ff\	re	[1a/	to
.	.	.	.	2f\	noA-	2cc\	Gius-	.	.
4G\	.	4B\	.	.	.	.	.	.	.
=12	=12	=12	=12	=12	=12	=12	=12	=12	=12
4A\	.	4c\	.	4e\	mo-	2cc\	to	2a/]	.
4B\	.	4d\	.	4d\	.	.	.	.	.
[2c\	.	[2e\	.	4c\	.	2cc\	dis-	2g/	dis-
.	.	.	.	4d\	.	.	.	.	.
=13	=13	=13	=13	=13	=13	=13	=13	=13	=13
2c\]	.	2e\]	.	4e\	.	2cc\	deg-	2a/	deg-
.	.	.	.	4f\	.	.	.	.	.
2B\	noA-	2d\	noA-	[2g\	.	2g/	noA-	2b\	noA-
=14	=14	=14	=14	=14	=14	=14	=14	=14	=14
1A\	mo-	2c\	mo-	4g\]	.	1a/	mo-	1cc\	mo-
.	.	.	.	8f#\L	.	.	.	.	.
.	.	.	.	8e\J	.	.	.	.	.
.	.	2A/	re	2f#\	.	.	.	.	.
=15	=15	=15	=15	=15	=15	=15	=15	=15	=15
2G\	re	4r	.	2g\	re	4d/	re	2b\	re
.	.	4d\	Ha	.	.	4dd\	Ha	.	.
2G\	Ha	2g\	rot-	4d\	Ha	2b\	rot-	2r	.
.	.	.	.	[4g\	rot-	.	.	.	.
=16	=16	=16	=16	=16	=16	=16	=16	=16	=16
2c\	rot-	2e\	to	4g\]	.	2ee\	to	4r	.
.	.	.	.	2e\	to	.	.	4g/	Ha
2A\	to	2c\	Ha	.	.	4r	.	4cc\	rot-
.	.	.	.	[4a\	sciol-	4cc\	Ha	4ee\	to
=17	=17	=17	=17	=17	=17	=17	=17	=17	=17
8D\L	sciol-	4d\	rot-	8a\L]	.	2.ff\	rot-	2dd\	sciol-
8E\J	.	.	.	8g\J	.	.	.	.	.
8F\L	.	4a\	to	2f\	.	.	.	.	.
8G\J	.	.	.	.	.	.	.	.	.
8A\L	.	4a\	sciol-	.	.	.	.	2cc\	to
8B\J	.	.	.	.	.	.	.	.	.
[4c\	.	8g\L	.	4c\	toe	4ee\	to	.	.
.	.	8f\J	.	.	.	.	.	.	.
=18	=18	=18	=18	=18	=18	=18	=18	=18	=18
4c\]	.	4.g\	.	4.e\	spen-	4gg\	sciol-	4r	.
4C/	toe	.	.	.	.	4ee\	toe	4cc\	e
.	.	8g\	toe	16d\LL	.	.	.	.	.
.	.	.	.	16c\JJ	.	.	.	.	.
4G\	spen-	4g\	spen-	4d\	.	4dd\	spen-	4b\	spen-
4G\	to	4g\	to	4G/	to	4dd\	to	4b\	to
=19	=19	=19	=19	=19	=19	=19	=19	=19	=19
2r	.	2r	.	1r	.	4r	.	4r	.
.	.	.	.	.	.	4ee\	Lo	4a/	Lo
4r	.	4r	.	.	.	4ff\	stral	4dd\	stral
4A\	Lo	4e\	Lo	.	.	4ee\	il	8cc\L	.
.	.	.	.	.	.	.	.	8b\J	.
=20	=20	=20	=20	=20	=20	=20	=20	=20	=20
4d\	stral	4f\	stral	1r	.	2dd\	lac-	2.a/	.
8c\L	.	8e\L	.	.	.	.	.	.	.
8B\J	.	8d\J	.	.	.	.	.	.	.
4A\	.	4e\	.	.	.	4cc#\	cioe	.	.
4d\	il	4f#\	il	.	.	4dd\	Lo	4a/	il
=21	=21	=21	=21	=21	=21	=21	=21	=21	=21
8G\L	lac-	2g\	lac-	1r	.	2.dd\	stral	2b\	lac-
8A\J	.	.	.	.	.	.	.	.	.
8B\L	.	.	.	.	.	.	.	.	.
8c\J	.	.	.	.	.	.	.	.	.
4d\	.	2f\	cioe'l	.	.	.	.	2a/	cioe'l
4A\	cioe'l	.	.	.	.	4cc\	il	.	.
=22	=22	=22	=22	=22	=22	=22	=22	=22	=22
8c\L	fo-	8e\L	fo-	1r	.	2.cc\	lac-	4g/	fo-
8B\J	.	8d\J	.	.	.	.	.	.	.
8A\L	.	8c\L	.	.	.	.	.	8a/L	.
8G\J	.	8B\J	.	.	.	.	.	8b/J	.
2F\	.	4.A/	.	.	.	.	.	4cc\	.
.	.	.	.	.	.	4a/	cioe'l	4dd\	.
.	.	8B\	.	.	.	.	.	.	.
=23	=23	=23	=23	=23	=23	=23	=23	=23	=23
1C/	co	2c\	.	2r	.	2g/	lo-	2ee\	.
.	.	2G/	co	4r	.	4g/	co	4ee\	co
.	.	.	.	4c\	Che	4e/	Che	4cc\	Che
=24	=24	=24	=24	=24	=24	=24	=24	=24	=24
1r	.	1r	.	4.f\	pun-	4.a/	pun-	4.cc\	pun-
.	.	.	.	8e\	se	8g/	se	8cc\	se
.	.	.	.	4f\	che	4a/	che	4cc\	che
.	.	.	.	4a\	le-	4a/	le-	4cc\	le-
=25	=25	=25	=25	=25	=25	=25	=25	=25	=25
1r	.	1r	.	4g\	g&ograve;	4b\	g&ograve;	4dd\	g&ograve;
.	.	.	.	4G/	ch'ar-	2b\	ch'ar-	2dd\	ch'ar-
.	.	.	.	4B\	seil	.	.	.	.
.	.	.	.	4c\	mio	[4a/	seil	[4cc\	seil
=26	=26	=26	=26	=26	=26	=26	=26	=26	=26
1r	.	1r	.	1d\	co-	4a/]	.	4cc\]	.
.	.	.	.	.	.	2g/	mio	4b\	mio
.	.	.	.	.	.	.	.	2a/	co-
.	.	.	.	.	.	4f#/	co-	.	.
=27	=27	=27	=27	=27	=27	=27	=27	=27	=27
2r	.	2d\	N&egrave;	2G/	re	2g/	re.	1b\	re.
2G\	N&egrave;	[2g\	pi&ugrave;	2d\	N&egrave;	2r	.	.	.
=28	=28	=28	=28	=28	=28	=28	=28	=28	=28
2.c\	pi&ugrave;	4g\]	.	4e\	pi&ugrave;	2r	.	1r	.
.	.	4f\	vi	4d\	vi	.	.	.	.
.	.	4e\	tien	4c\	tien	2g/	N&egrave;	.	.
4B\	vi	4d\	suo	4d\	suo	.	.	.	.
=29	=29	=29	=29	=29	=29	=29	=29	=29	=29
4A\	tien	2c\	lo-	2e\	lo-	4cc\	pi&ugrave;	2r	.
4G\	suo	.	.	.	.	4b\	vi	.	.
4F\	lo-	2c\	co	4f\	co	4a/	tien	2cc\	Il
4E\	coIl	.	.	4g\	Il	4g/	suo	.	.
=30	=30	=30	=30	=30	=30	=30	=30	=30	=30
2D\	lau-	4r	.	2a\	lau	4f/	lo-	2dd\	lau-
.	.	4A/	Il	.	.	4e/	co	.	.
4D\	ro	4A/	lau-	4f\	ro	2d/	Il	4dd\	ro
[4G\	sec-	4G/	ro	[4g\	sec-	.	.	[4b\	sec-
=31	=31	=31	=31	=31	=31	=31	=31	=31	=31
4G\]	.	4.d\	sec-	4g\]	.	4d/	lau-	4b\]	.
4F#\	co&ograve;	.	.	4a\	co&ograve;	2dd\	ro	4a/	co&ograve;
.	.	8d\	co&ograve;	.	.	.	.	.	.
4G\	ver-	4d\	ver-	4g\	ver-	.	.	4b\	ver-
4A\	de	4A/	de	4e\	de	4cc\	sec-	4cc\	de
=32	=32	=32	=32	=32	=32	=32	=32	=32	=32
4F\	ch'ei	4c\	ch'ei	4a\	ch'ei	4ff\	co&ograve;	4cc\	ch'ei
4C/	si	4c\	si	4g\	si	4ee\	ver-	4cc\	si
2G\	fin-	2d\	fin-	2g\	fin-	4dd\	de	2b\	fin-
.	.	.	.	.	.	4dd\	ch'ei	.	.
=33	=33	=33	=33	=33	=33	=33	=33	=33	=33
1C/	ga	2c\	ga	2g\	ga	2ee\	si	2cc\	ga
.	.	4r	.	4r	.	2ee\	fin-	2g/	Ma
.	.	4c\	Ma	4e\	Ma	.	.	.	.
=34	=34	=34	=34	=34	=34	=34	=34	=34	=34
1r	.	4.A/	li-	4.e\	li-	1cc\	ga	4.cc\	li-
.	.	8A/	be-	8e\	be-	.	.	8cc\	be-
.	.	4A/	ro	4e\	ro	.	.	4a/	ro
.	.	4d\	mi	4f#\	mi	.	.	4b\	mi
=35	=35	=35	=35	=35	=35	=35	=35	=35	=35
2r	.	2c\	sen-	2g\	sen-	2r	.	2cc\	sen-
4r	.	2c\	to	4g\	to	4r	.	2cc\	to
4C/	Ma	.	.	4e\	Ma	4g/	Ma	.	.
=36	=36	=36	=36	=36	=36	=36	=36	=36	=36
4.F\	li-	2r	.	4.c\	li-	4.a/	li-	1r	.
8F\	be-	.	.	8c\	be-	8a/	be-	.	.
4E\	ro	4r	.	4c\	ro	4g/	ro	.	.
4F\	mi	4A/	Dal	4c\	mi	4a/	mi	.	.
=37	=37	=37	=37	=37	=37	=37	=37	=37	=37
2G\	sen-	2d\	col-	8B\L	sen-	2b\	sen-	4r	.
.	.	.	.	8A\J	.	.	.	.	.
.	.	.	.	8B\L	.	.	.	2g/	Dal
.	.	.	.	8c\J	.	.	.	.	.
2G\	to	2B\	po	2d\	.	4b\	to	.	.
.	.	.	.	.	.	4g/	Dal	[4dd\	col-
=38	=38	=38	=38	=38	=38	=38	=38	=38	=38
1r	.	2.G/	da	4d\	to	2dd\	col-	4dd\]	.
.	.	.	.	4G/	Dal	.	.	4b\	po
.	.	.	.	[2d\	col-	4b\	po	4g/	da
.	.	4G/	l'in-	.	.	[4g/	da	4b\	l'in-
=39	=39	=39	=39	=39	=39	=39	=39	=39	=39
4r	.	2d\	cen-	4d\]	.	4g/]	.	2a/	cen-
4D\	Dal	.	.	4A/	po	4f#/	l'in-	.	.
2G\	col-	4d\	dio	4r	.	2g/	cen-	2b\	dio
.	.	4d\	Dal	4G/	Dal	.	.	.	.
=40	=40	=40	=40	=40	=40	=40	=40	=40	=40
2E\	po	2e\	col-	4c\	col-	2g/	dio	4r	.
.	.	.	.	4B\	po	.	.	2g/	da
4G\	da	4d\	po	4B\	da	2r	.	.	.
4A\	l'in-	[4c\	da	4c\	l'in-	.	.	4f#/	l'in-
=41	=41	=41	=41	=41	=41	=41	=41	=41	=41
4.G\	cen-	4c\]	.	2d\	cen-	4r	.	8g/L	cen-
.	.	.	.	.	.	.	.	8a/J	.
.	.	4B\	l'in-	.	.	4g/	Dal	8b/L	.
8G\	dioe	.	.	.	.	.	.	8cc/J	.
4F#\	dal	4A/	cen-	4d\	di	4a/	col-	2dd\	.
4G\	ri-	4B\	dioe	4g\	Dal	4g/	po	.	.
=42	=42	=42	=42	=42	=42	=42	=42	=42	=42
[1D\	teg-	2.d\	dal	2.a\	col-	4f/	da	4dd\	dio
.	.	.	.	.	.	4e/	l'in	4a/	Dal
.	.	.	.	.	.	[2d/	cen-	4ff\	col-
.	.	4B\	ri-	4g\	po	.	.	4ee\	po
=43	=43	=43	=43	=43	=43	=43	=43	=43	=43
1D\]	.	2A/	ten-	4f\	da	4d/]	.	4dd\	da
.	.	.	.	4e\	l'in-	4e/	dioe	4a/	l'in-
.	.	4A/	go	4d\	cen-	4f#/	dal	4a/	cen-
.	.	4G/	e	4B\	dioe	4g/	ri-	4b\	dioe
=44	=44	=44	=44	=44	=44	=44	=44	=44	=44
1D\	no.	4F#/	dal	4A/	dal	4a/	teg-	4dd\	dal
.	.	4G/	ri-	4d\	ri-	2g/	.	4dd\	ri-
.	.	2A/	teg-	2d\	teg-	.	.	2dd\	teg-
.	.	.	.	.	.	4f#/	.	.	.
=45	=45	=45	=45	=45	=45	=45	=45	=45	=45
1r	.	1G/	no.	2d\	no.	2g/	no.	1b\	no.
.	.	.	.	2d\	Ein	4r	.	.	.
.	.	.	.	.	.	4dd\	Ein	.	.
=46	=46	=46	=46	=46	=46	=46	=46	=46	=46
1r	.	2r	.	4.G/	va-	4.b\	va-	2r	.
.	.	.	.	8A/	no	8cc\	no	.	.
.	.	2g\	Ein	4B\	mi	4dd\	mi	4r	.
.	.	.	.	4G/	lu-	4dd\	lu-	4dd\	Ein
=47	=47	=47	=47	=47	=47	=47	=47	=47	=47
2r	.	4.e\	va-	2c\	sin-	2ee\	sin-	4.g/	va-
.	.	8f\	no	.	.	.	.	8a/	no
2G\	Ein	4g\	mi	4B\	ga	2dd\	ga	4b\	mi
.	.	4g\	lu-	4g\	Ein	.	.	4g/	lu-
=48	=48	=48	=48	=48	=48	=48	=48	=48	=48
4.C/	va-	2a\	sin-	4.e\	va-	1r	.	2cc\	sin-
8D\	no	.	.	8f\	no	.	.	.	.
4E\	mi	4g\	ga	4g\	mi	.	.	4b\	ga
4C/	lu-	4g\	Ein	4f\	lu-	.	.	4cc\	Bel-
=49	=49	=49	=49	=49	=49	=49	=49	=49	=49
2F\	sin-	4.c\	va-	2a\	sin-	2r	.	4cc\	lez-
.	.	.	.	.	.	.	.	4a/	zain-
.	.	8d\	no	.	.	.	.	.	.
2C/	ga	4e\	mi	4g\	ga	2gg\	Ein	2ee\	fi-
.	.	4g\	lu-	4e\	Bel-	.	.	.	.
=50	=50	=50	=50	=50	=50	=50	=50	=50	=50
2r	.	2f\	sin-	2a\	lez-	4.cc\	va-	2ff\	da
.	.	.	.	.	.	8dd\	no	.	.
2c\	Ein	4e\	ga	2g\	zain-	4ee\	mi	4r	.
.	.	4g\	Bel-	.	.	4cc\	lu-	4gg\	Ein
=51	=51	=51	=51	=51	=51	=51	=51	=51	=51
4.A\	va-	2a\	lez-	4f\	fi-	2ff\	sin-	4.cc\	va-
.	.	.	.	2c\	da	.	.	.	.
8B\	no	.	.	.	.	.	.	8dd\	no
4c\	mi	2g\	zain-	.	.	2ee\	ga	4ee\	mi
4c\	lu-	.	.	4e\	Bel-	.	.	4cc\	lu-
=52	=52	=52	=52	=52	=52	=52	=52	=52	=52
2d\	sin-	4f\	fi-	2a\	lez-	4r	.	2ff\	sin-
.	.	4d\	da	.	.	4dd\	Bel-	.	.
4c\	ga	4r	.	4A/	za	4ee\	lez-	4ee\	ga
4G\	Bel-	4g\	Ein	4B\	Bel-	4dd\	zain-	4b\	Bel-
=53	=53	=53	=53	=53	=53	=53	=53	=53	=53
2A\	lez-	4.e\	va-	2c\	lez-	2cc\	fi-	8a/L	lez-
.	.	.	.	.	.	.	.	8b/J	.
.	.	.	.	.	.	.	.	8cc/L	.
.	.	8f\	no	.	.	.	.	8a/J	.
2G\	zain-	4g\	mi	4d\	zain-	2b\	da	4b\	.
.	.	4g\	lu-	[4e\	fi-	.	.	4g/	za
=54	=54	=54	=54	=54	=54	=54	=54	=54	=54
2F\	fi-	2a\	sin-	4e\]	.	2r	.	4r	.
.	.	.	.	4d\	.	.	.	4a/	Bel-
2E\	da	4g\	ga	2e\	da	2b\	Bel-	4.ee\	lez-
.	.	4g\	Bel-	.	.	.	.	.	.
.	.	.	.	.	.	.	.	8dd\	zain
=55	=55	=55	=55	=55	=55	=55	=55	=55	=55
2r	.	2a\	lez-	1r	.	2.ee\	lez-	2cc\	fi-
4r	.	2g\	zain-	.	.	.	.	2b\	da
4G\	che	.	.	.	.	4dd\	zain-	.	.
=56	=56	=56	=56	=56	=56	=56	=56	=56	=56
4.A\	gius-	2e\	fi-	1r	.	4.cc\	fi-	1r	.
8B\	.	.	.	.	.	8b\	.	.	.
8c\L	.	4e\	da	.	.	2a/	.	.	.
8A\J	.	.	.	.	.	.	.	.	.
[4d\	.	4f\	che	.	.	.	.	.	.
=57	=57	=57	=57	=57	=57	=57	=57	=57	=57
4d\]	.	4.e\	gius-	1r	.	2g/	da	1r	.
2c\	sto	.	.	.	.	.	.	.	.
.	.	8f\	.	.	.	.	.	.	.
.	.	8g\L	.	.	.	2r	.	.	.
.	.	8e\J	.	.	.	.	.	.	.
4c\	di-	[4a\	.	.	.	.	.	.	.
=58	=58	=58	=58	=58	=58	=58	=58	=58	=58
4.B\	seg-	4a\]	.	1r	.	1r	.	1r	.
.	.	2g\	to	.	.	.	.	.	.
16A\LL	.	.	.	.	.	.	.	.	.
16G\JJ	.	.	.	.	.	.	.	.	.
2A\	.	.	.	.	.	.	.	.	.
.	.	4f#\	di-	.	.	.	.	.	.
=59	=59	=59	=59	=59	=59	=59	=59	=59	=59
1G\	no	2g\	seg-	2r	.	2r	.	4r	.
.	.	.	.	.	.	.	.	4b\	Con
.	.	2d\	no	4r	.	4r	.	4.dd\	trop-
.	.	.	.	4d\	Con	4g/	Con	.	.
.	.	.	.	.	.	.	.	8dd\	poin-
=60	=60	=60	=60	=60	=60	=60	=60	=60	=60
2r	.	2r	.	4.g\	trop-	4.b\	trop-	4dd\	gius-
.	.	.	.	.	.	.	.	4ee\	taof-
.	.	.	.	8g\	poin-	8b\	poin-	.	.
4r	.	4r	.	4g\	gius-	4b\	gius-	2dd\	fes-
4D\	Con	4d\	Con	4f#\	taof-	4a/	taof-	.	.
=61	=61	=61	=61	=61	=61	=61	=61	=61	=61
4.G\	trop-	4.B\	trop-	2g\	fes-	2b\	fes-	1dd\	sa
8G\	pain-	8B\	pain-	.	.	.	.	.	.
4G\	gius-	4G/	gius-	2d\	sa	4b\	sa	.	.
4F#\	taof-	4A/	taof-	.	.	4a/	Con	.	.
=62	=62	=62	=62	=62	=62	=62	=62	=62	=62
2G\	fes-	2B\	fes-	4r	.	4.g/	trop-	4r	.
.	.	.	.	4G/	Con	.	.	4dd\	Con
.	.	.	.	.	.	8g/	pain-	.	.
2C/	sa	2G/	sa	4.c\	trop-	4g/	gius-	4.ee\	trop-
.	.	.	.	.	.	4g/	taif-	.	.
.	.	.	.	8c\	pain-	.	.	8ee\	pain-
=63	=63	=63	=63	=63	=63	=63	=63	=63	=63
4r	.	4r	.	4c\	gius-	2g/	fes-	4ee\	gius-
4G\	Con	4d\	Con	4B\	taof-	.	.	4dd\	taof-
4.C/	trop-	4.e\	trop-	2c\	fes-	2g/	sa	2cc\	fes-
8C/	pain-	8e\	pain-	.	.	.	.	.	.
=64	=64	=64	=64	=64	=64	=64	=64	=64	=64
4C/	gius-	4e\	gius-	4c\	sa	1r	.	[1g/	sa
4BB/	taof-	4d\	taof-	4d\	La	.	.	.	.
2C/	fes-	2c\	fes-	2e\	li-	.	.	.	.
=65	=65	=65	=65	=65	=65	=65	=65	=65	=65
1G\	sa	2B\	sa	2d\	ber-	2r	.	2g/]	.
.	.	2G/	La	2B\	t&agrave;	[2dd\	La	2g/	La
=66	=66	=66	=66	=66	=66	=66	=66	=66	=66
1r	.	2.A/	li-	2r	.	2dd\]	.	2.e/	li-
.	.	.	.	2e\	m'h&agrave;	[2cc\	li-	.	.
.	.	4G/	ber-	.	.	.	.	4g/	ber-
=67	=67	=67	=67	=67	=67	=67	=67	=67	=67
1r	.	2F#/	t&agrave;	[1d\	re-	2cc\]	.	2a/	t&agrave;
.	.	2G/	m'h&agrave;	.	.	2b\	ber-	[2g/	m'h&agrave;
=68	=68	=68	=68	=68	=68	=68	=68	=68	=68
2r	.	1d\	re-	2d\]	.	1a/	t&agrave;	2g/]	.
2D\	La	.	.	2A/	sa	.	.	2f#/	re-
=69	=69	=69	=69	=69	=69	=69	=69	=69	=69
2BB/	li-	[1G/	sa	4r	.	1r	.	4g/	sa
.	.	.	.	2d\	La	.	.	2gg\	La
2C/	ber-	.	.	.	.	.	.	.	.
.	.	.	.	[4c\	li-	.	.	[4ee\	li-
=70	=70	=70	=70	=70	=70	=70	=70	=70	=70
2G\	t&agrave;	1G/]	.	4c\]	.	2r	.	4ee\]	.
.	.	.	.	4B\	ber-	.	.	4dd\	ber-
2C/	La	.	.	4.e\	t&agrave;	2g/	La	2cc\	t&agrave;
.	.	.	.	8d\	.	.	.	.	.
=71	=71	=71	=71	=71	=71	=71	=71	=71	=71
2.E\	li-	2r	.	4c\	.	4.e/	li-	2r	.
.	.	.	.	4B\	m'h&agrave;	.	.	.	.
.	.	.	.	.	.	8f/	ber-	.	.
.	.	2G/	La	2e\	re-	4g/	t&agrave;	2b\	La
4F\	ber-	.	.	.	.	4a/	m'h&agrave;	.	.
=72	=72	=72	=72	=72	=72	=72	=72	=72	=72
2G\	t&agrave;	2.B\	li-	2d\	sa	2g/	re-	2b\	li-
2E\	m'h&agrave;	.	.	2G/	La	4g/	sa	2ee\	ber-
.	.	4c\	ber-	.	.	4g/	La	.	.
=73	=73	=73	=73	=73	=73	=73	=73	=73	=73
[1D\	re-	2d\	t&agrave;	2A/	li-	2f#/	li-	2a/	t&agrave;
.	.	2B\	m'h&agrave;	2G/	ber-	2g/	ber-	2dd\	m'h&agrave;
=74	=74	=74	=74	=74	=74	=74	=74	=74	=74
1D\]	.	1A/	re-	4F#/	t&agrave;	4a/	t&agrave;	1dd\	re-
.	.	.	.	4G/	m'h&agrave;	4g/	m'h&agrave;	.	.
.	.	.	.	2A/	re-	2f#/	re-	.	.
=75	=75	=75	=75	=75	=75	=75	=75	=75	=75
1G\	sa.	1G/	sa.	1B\	sa.	1g/	sa.	1dd\	sa.
==	==	==	==	==	==	==	==	==	==
*-	*-	*-	*-	*-	*-	*-	*-	*-	*-
